X:1
T:Non era chi portasse
T:Giammateo Asola
T:Source : Madrigali a due voci---Venetia---G.Vincenti---1587. Editor : André Vierendeels (26/04/17). 
T:Notes : Original clef : C3 ( Fuga d'un tempo, una quinta piu bassa) Original note values have been halved Editorial accidentals above the staff
T:Non era chi portasse
T:©
T:©
T:©
C:Giammateo Asola
Z:©
%%score [ 1 2 ]
L:1/8
Q:1/4=120
M:2/2
K:F
V:1 treble-8 nm="Tenor" snm="T"
V:2 bass nm="Bass" snm="B"
V:1
 d4 d2 c2 | d2 e2 d3 c | B2 c3 B B2 | c4 z2 c2 | c2 d2 c2 A2 | d3 e f2 f2 | d2 g2 fedc | d2 e2 d4 | %8
w: Non e- ra|chi por- tass' il|no- vo _ gior-|no, col|mag- gior lum' in|o- * * ri-|en- te'ac- ce- * * *|* * so,|
 z2 c2 d2 B2 | ABcA B2 c2 | d3 d c2 A2 | B4 A2 d2 | d2 c2 d2 B2 | A2 d2 B2 c2 | dcBA G2 c2- | %15
w: ne ri- no-|va _ _ _ _ va|mai la lu- na'il|cor- no, ne|l'al- tre stel- le'ha-|vean lor cor- so|pre- * * * * *|
 cB/A/ B2 c4 | z2 c2 ccAA | B2 c2 AA d2 | c2 z c d2 B2 | f3 f d2 g2 | f2 d2 e4 | d2 g2 g2 f2 | %22
w: * * * * so,|ne pen- de- va la|ter- ra'in- torn' in- tor-|no, li- bra- ta'in|ae- re dal suo|pro- prio pe-|so, ne'il mar ha-|
 g2 e2 d2 d2 | e2 c2 d4 | c2 f2 d2 B2 | c2 d2 B2 c2 | d3 c/B/ c2 A2 | B4 A2 d2 | d2 c2 d2 B2 | %29
w: vea col suo per-|pe- tuo gri-|do, fatt' in- tor-|no'a la ter- ra'il|va- * * * rio|li- do, fatt'|in- tor- no'a la|
 A2 d2 d2 c2 | d2 B2 A4 | G2 g2 f2 d2 | e4 d4 | z2 c2 B2 G2 | A4 G2 g2 | f2 d2 e4 | d2 g4 f2 | %37
w: ter- ra'il va- rio|li- * *|do, il va- rio|li- do,|il va- rio|li- do, il|va- rio li-||
 g8 |] %38
w: do.|
V:2
 z8 | G,4 G,2 F,2 | G,2 A,2 G,3 F, | E,2 F,3 E, E,2 | F,4 z2 F,2 | F,2 G,2 F,2 D,2 | %6
w: |Non e- ra|chi por- tass' il|no- vo _ gior-|no, col|mag- gior lum' in|
 G,3 A, B,2 B,2 | G,2 C2 B,A,G,F, | G,2 A,2 G,4 | z2 F,2 G,2 E,2 | D,E,F,D, E,2 F,2 | %11
w: o- * * ri-|en- te'ac- ce- * * *|* * so,|ne ri- no-|va _ _ _ _ va|
 G,3 G, F,2 D,2 | E,4 D,2 G,2 | G,2 F,2 G,2 E,2 | D,2 G,2 E,2 F,2 | G,F,E,D, C,2 F,2- | %16
w: mai la lu- na'il|cor- no, ne|l'al- tre stel- le'ha-|vean lor cor- so|pre- * * * * *|
 F,E,/D,/ E,2 F,4 | z2 F,2 F,F,D,D, | E,2 F,2 D,D, G,2 | F,2 z F, G,2 E,2 | B,3 B, G,2 C2 | %21
w: * * * * so,|ne pen- de- va la|ter- ra'in- torn' in tor-|no, li- bra- ta'in|ae- re dal suo|
 B,2 G,2 A,4 | G,2 C2 C2 B,2 | C2 A,2 G,2 G,2 | A,2 F,2 G,4 | F,2 B,2 G,2 E,2 | F,2 G,2 E,2 F,2 | %27
w: pro- prio pe-|so, ne'il mar ha-|vea col suo per-|pe- tuo gri-|do, fatt' in- tor-|no'a la ter- ra'il|
 G,3 F,/E,/ F,2 D,2 | E,4 D,2 G,2 | G,2 F,2 G,2 E,2 | D,2 G,2 G,2 F,2 | G,2 E,2 D,4 | %32
w: va- * * * rio|li- do, fatt'|in- tor- no'a la|ter- ra'il va- rio|li- * *|
 C,2 C2 B,2 G,2 | A,4 G,4 | z2 F,2 E,2 C,2 | D,4 C,2 C2 | B,2 G,2 A,4 |"^#" G,8 |] %38
w: do, il va- rio|li- do,|il va- rio|li- do, il|va- rio li-|do.|

